packages/dnb-ui-lib/assets/icons/chatbot_medium.svg

<svg width="24" height="24" viewBox="0 0 24 24" fill="none" xmlns="http://www.w3.org/2000/svg">
<path d="M22.4508 12.9004C22.1196 12.6516 21.6494 12.7183 21.4006 13.0495C21.1518 13.3807 21.2186 13.8508 21.5497 14.0996L22.4508 12.9004ZM21.5497 16.9004C21.2186 17.1492 21.1518 17.6193 21.4006 17.9505C21.6494 18.2817 22.1196 18.3484 22.4508 18.0996L21.5497 16.9004ZM2.45026 14.0996C2.78142 13.8508 2.84818 13.3807 2.59938 13.0495C2.35057 12.7183 1.88041 12.6516 1.54925 12.9004L2.45026 14.0996ZM1.54925 18.0996C1.88041 18.3484 2.35057 18.2817 2.59938 17.9505C2.84818 17.6193 2.78142 17.1492 2.45026 16.9004L1.54925 18.0996ZM12.0006 7V7.75V7ZM21.5497 14.0996C21.9764 14.4202 22.25 14.928 22.25 15.5H23.75C23.75 14.4364 23.2383 13.4921 22.4508 12.9004L21.5497 14.0996ZM22.25 15.5C22.25 16.072 21.9764 16.5798 21.5497 16.9004L22.4508 18.0996C23.2383 17.5079 23.75 16.5636 23.75 15.5H22.25ZM1.75 15.5C1.75 14.928 2.02361 14.4202 2.45026 14.0996L1.54925 12.9004C0.761731 13.4921 0.25 14.4364 0.25 15.5H1.75ZM2.45026 16.9004C2.02361 16.5798 1.75 16.072 1.75 15.5H0.25C0.25 16.5636 0.761731 17.5079 1.54925 18.0996L2.45026 16.9004ZM3.25 15.0006C3.25 19.8332 7.16824 23.75 12.0006 23.75V22.25C7.99637 22.25 4.75 19.0045 4.75 15.0006H3.25ZM12.0006 23.75C16.8315 23.75 20.75 19.8332 20.75 15.0006H19.25C19.25 19.0046 16.0032 22.25 12.0006 22.25V23.75ZM20.75 15.0006C20.75 10.1678 16.8316 6.25 12.0006 6.25V7.75C16.0031 7.75 19.25 10.9961 19.25 15.0006H20.75ZM12.0006 6.25C7.16811 6.25 3.25 10.1677 3.25 15.0006H4.75C4.75 10.9962 7.9965 7.75 12.0006 7.75V6.25ZM9.75 2.5007C9.75 3.74271 10.7566 4.75 12.0004 4.75V3.25C11.5849 3.25 11.25 2.91412 11.25 2.5007H9.75ZM12.0004 4.75C13.2431 4.75 14.25 3.7426 14.25 2.5007H12.75C12.75 2.91424 12.4146 3.25 12.0004 3.25V4.75ZM14.25 2.5007C14.25 1.25802 13.2436 0.25 12.0004 0.25V1.75C12.4141 1.75 12.75 2.08539 12.75 2.5007H14.25ZM12.0004 0.25C10.756 0.25 9.75 1.25794 9.75 2.5007H11.25C11.25 2.08546 11.5853 1.75 12.0004 1.75V0.25ZM12.7506 6.99994L12.7504 3.99994L11.2504 4.00006L11.2506 7.00006L12.7506 6.99994Z" fill="black"/>
<path fill-rule="evenodd" clip-rule="evenodd" d="M8.50028 17.5C7.94698 17.5 7.5 17.0516 7.5 16.5C7.5 15.9481 7.94698 15.5 8.50028 15.5C9.05257 15.5 9.5 15.9482 9.5 16.5C9.5 17.0517 9.05257 17.5 8.50028 17.5ZM15.5001 17.5C14.9481 17.5 14.5 17.0516 14.5 16.5C14.5 15.9481 14.9481 15.5 15.5001 15.5C16.0533 15.5 16.5 15.9482 16.5 16.5C16.5 17.0517 16.0533 17.5 15.5001 17.5Z" fill="black"/>
</svg>

<svg width="24" height="24" viewBox="0 0 24 24" fill="none" xmlns="http://www.w3.org/2000/svg"><path d="M22.45 12.9a.75.75 0 00-.9 1.2l.9-1.2zm-.9 4a.75.75 0 00.9 1.2l-.9-1.2zm-19.1-2.8a.75.75 0 10-.9-1.2l.9 1.2zm-.9 4a.75.75 0 10.9-1.2l-.9 1.2zM12 7v.75V7zm9.55 7.1c.426.32.7.828.7 1.4h1.5a3.246 3.246 0 00-1.3-2.6l-.9 1.2zm.7 1.4c0 .572-.274 1.08-.7 1.4l.9 1.2a3.246 3.246 0 001.3-2.6h-1.5zm-20.5 0c0-.572.274-1.08.7-1.4l-.9-1.2a3.246 3.246 0 00-1.3 2.6h1.5zm.7 1.4c-.426-.32-.7-.828-.7-1.4H.25c0 1.064.512 2.008 1.3 2.6l.9-1.2zm.8-1.9A8.75 8.75 0 0012 23.75v-1.5A7.25 7.25 0 014.75 15h-1.5zM12 23.75A8.75 8.75 0 0020.75 15h-1.5A7.25 7.25 0 0112 22.25v1.5zM20.75 15A8.75 8.75 0 0012 6.25v1.5A7.25 7.25 0 0119.25 15h1.5zM12 6.25A8.75 8.75 0 003.25 15h1.5A7.25 7.25 0 0112 7.75v-1.5zM9.75 2.5A2.25 2.25 0 0012 4.75v-1.5a.75.75 0 01-.75-.75h-1.5zM12 4.75a2.25 2.25 0 002.25-2.25h-1.5a.75.75 0 01-.75.75v1.5zm2.25-2.25A2.25 2.25 0 0012 .25v1.5a.75.75 0 01.75.75h1.5zM12 .25A2.25 2.25 0 009.75 2.5h1.5a.75.75 0 01.75-.75V.25zM12.75 7V4h-1.5v3h1.5z" fill="#000"/><path fill-rule="evenodd" clip-rule="evenodd" d="M8.5 17.5a1 1 0 110-2 1 1 0 010 2zm7 0a1 1 0 11.001-2.001 1 1 0 010 2.001z" fill="#000"/></svg>
